printrun/assets/toolbar/layer_down_w.svg

<?xml version="1.0" encoding="UTF-8"?>
<svg id="icon" xmlns="http://www.w3.org/2000/svg" width="128" height="128" viewBox="0 0 128 128">
  <path d="M111.71,57.659l-16.57-8.173c-.656-.323-1.44-.12-1.872.469-.068.092-3.9,4.596-3.9,4.596-.637.744-.403,1.889.476,2.322l17.907,8.826c.91.44,1.05,1.25,1.05,1.68,0,.44-.13,1.24-1.04,1.69l-41.74,20.73c-1.24.62-2.73.62-3.97,0l-41.8-20.61c-.91-.44-1.05-1.24-1.05-1.68s.14-1.24,1.05-1.69l17.879-8.876c.88-.437,1.109-1.588.464-2.329,0,0-3.792-4.381-3.919-4.552-.436-.589-1.215-.804-1.871-.478l-16.543,8.215c-3.72,1.84-6.02,5.57-6.02,9.73.01,4.15,2.33,7.87,6.05,9.7l41.79,20.61c1.87.92,3.91,1.38,5.95,1.38s4.1-.47,5.97-1.4l41.74-20.73c3.72-1.84,6.02-5.57,6.02-9.72-.01-4.15-2.33-7.88-6.05-9.71Z" style="fill: #dfe2e5;"/>
  <path d="M113.525,86.368l-47.522,23.593c-1.254.627-2.701.629-3.965.009l-47.576-23.472c-2.218-1.089-4.906-.184-5.999,2.036-1.095,2.218-.184,4.903,2.036,6.001l47.581,23.474c1.864.916,3.902,1.373,5.938,1.373,2.059,0,4.115-.468,5.983-1.404l47.509-23.586c2.218-1.1,3.123-3.788,2.02-6.005-1.102-2.215-3.792-3.127-6.005-2.018h0Z" style="fill: #dfe2e5;"/>
  <path d="M87.38,43.659c-.022.576-.222,1.133-.61,1.62l-.05.06-20.04,23.38c-.68.79-1.63,1.19-2.59,1.19-.95,0-1.89-.39-2.58-1.17l-20.29-23.28c-.01-.01-.02-.03-.03-.04-.41-.51-.57-1.01-.57-1.59,0-.34.08-.68.26-1.03.43-.85,1.28-1.46,2.22-1.46h9.79c.552,0,1-.448,1-1V11.099c0-1.37,1.11-2.48,2.48-2.48h15.34c1.36,0,2.47,1.11,2.47,2.48v29.08c0,.552.448,1,1,1h9.8c.748,0,1.434.374,1.904.955.352.435.517.966.495,1.525Z" style="fill: #dfe2e5;"/>
</svg>

<?xml version="1.0" encoding="UTF-8" standalone="no"?>
<!DOCTYPE svg PUBLIC "-//W3C//DTD SVG 1.1//EN" "http://www.w3.org/Graphics/SVG/1.1/DTD/svg11.dtd">
<svg width="100%" height="100%" viewBox="0 0 128 128" version="1.1" xmlns="http://www.w3.org/2000/svg" xmlns:xlink="http://www.w3.org/1999/xlink" xml:space="preserve" xmlns:serif="http://www.serif.com/" style="fill-rule:evenodd;clip-rule:evenodd;stroke-linejoin:round;stroke-miterlimit:2;">
    <path d="M111.71,57.66L95.14,49.49C94.48,49.17 93.7,49.37 93.27,49.96C93.2,50.05 93.13,50.14 93.06,50.23L92.96,50.36L92.85,50.49L89.37,54.55C88.73,55.29 88.97,56.44 89.85,56.87L107.76,65.7C108.67,66.14 108.81,66.95 108.81,67.38C108.81,67.81 108.68,68.62 107.77,69.07L66.03,89.8C64.79,90.42 63.3,90.42 62.06,89.8L20.26,69.19C19.35,68.75 19.21,67.95 19.21,67.51C19.21,67.07 19.35,66.27 20.26,65.82L38.14,56.94C39.02,56.5 39.25,55.35 38.6,54.61L35.2,50.7L35.08,50.56C34.94,50.39 34.81,50.22 34.68,50.05C34.24,49.46 33.46,49.25 32.81,49.57L16.27,57.79C12.55,59.63 10.25,63.36 10.25,67.52C10.26,71.67 12.58,75.39 16.3,77.22L58.09,97.83C59.96,98.75 62,99.21 64.04,99.21C66.08,99.21 68.14,98.74 70.01,97.81L111.75,77.08C115.47,75.24 117.77,71.51 117.77,67.36C117.76,63.21 115.44,59.48 111.72,57.65L111.71,57.66Z" style="fill:white;fill-rule:nonzero;"/>
    <path d="M113.53,86.37L66.01,109.96C64.76,110.59 63.31,110.59 62.05,109.96L14.47,86.49C12.25,85.4 9.56,86.31 8.47,88.53C7.38,90.75 8.29,93.43 10.51,94.53L58.09,118C59.95,118.92 61.99,119.37 64.03,119.37C66.07,119.37 68.14,118.9 70.01,117.97L117.52,94.38C119.74,93.28 120.64,90.59 119.54,88.38C118.44,86.17 115.75,85.25 113.54,86.36L113.53,86.37Z" style="fill:white;fill-rule:nonzero;"/>
    <path d="M87.38,43.65C87.36,44.23 87.16,44.79 86.77,45.28L86.72,45.34L80.7,52.36L66.68,68.72C66,69.51 65.05,69.91 64.09,69.91C63.13,69.91 62.2,69.52 61.51,68.74L47.27,52.4L41.22,45.46C41.22,45.46 41.2,45.43 41.19,45.42C40.78,44.91 40.62,44.41 40.62,43.83C40.62,43.49 40.7,43.15 40.88,42.8C41.31,41.95 42.16,41.34 43.1,41.34L53.89,41.34L53.89,11.1C53.89,9.73 55,8.62 56.37,8.62L71.71,8.62C73.07,8.62 74.18,9.73 74.18,11.1L74.18,41.18L84.98,41.18C85.65,41.18 86.27,41.48 86.73,41.96C87.16,42.41 87.39,43.03 87.38,43.65Z" style="fill:white;fill-rule:nonzero;"/>
</svg>
